static/images/banner/bg.svg

<svg xmlns="http://www.w3.org/2000/svg" width="355" height="238" fill="none"><path fill="#04a29f" stroke="#04a29f" stroke-width="1.271" d="m217.006 47.87 10.82-3.896c.287-.103.599-.117.893-.038l84.735 22.705c.254.068.405.329.337.583l-17.503 65.32a1.492 1.492 0 0 1-.946 1.022l-11.113 3.922a1.49 1.49 0 0 1-.884.035l-83.485-22.37a1.494 1.494 0 0 1-1.056-1.83l17.265-64.434c.126-.473.476-.853.937-1.019Z"/><g clip-path="url(#a)"><path fill="#04a29f" d="m285.508 105.918-9.751-2.612-.746 2.786 6.686 1.791c-2.095 3.918-6.093 6.579-10.506 6.89l-11.727-20.312c2.978-4.428 8.648-6.641 14.08-5.185 4.179 1.12 7.381 4.217 8.89 8.055l2.575-1.25c-1.778-4.508-5.564-8.21-10.718-9.591-7.244-1.941-14.754 1.57-18.115 7.986l13.46 23.314c7.135.12 13.931-4.628 15.872-11.872Zm-30.683-8.072c-1.045 3.901-.521 8.072 1.621 11.781 2.141 3.71 5.631 6.287 9.392 7.295l-11.013-19.076Z"/><path fill="#02001D" d="M275.411 82.31c-10.726-2.874-21.853 3.55-24.727 14.277-2.874 10.726 3.55 21.854 14.276 24.728 10.726 2.874 21.854-3.551 24.728-14.277 2.874-10.726-3.551-21.853-14.277-24.727Zm-19.002 27.457c-2.142-3.709-2.629-8.02-1.621-11.782l11.153 19.113c-3.863-1.184-7.391-3.622-9.532-7.331Zm13.126 7.847-13.359-23.138c3.362-6.416 10.872-9.927 18.116-7.986 5.154 1.38 8.939 5.082 10.718 9.59l-2.575 1.251c-1.51-3.838-4.711-6.936-8.89-8.055-5.433-1.456-10.963.795-14.08 5.185l11.727 20.312c4.413-.311 8.411-2.972 10.506-6.89l-6.687-1.791.747-2.786 9.751 2.612c-1.941 7.244-8.738 11.992-15.974 11.696Z"/></g><path fill="#02001D" stroke="#04a29f" stroke-width="1.271" d="m110.221 19.304 10.818-3.876c.286-.103.597-.116.891-.037l84.766 22.713c.254.068.405.33.337.583l-17.449 65.12c-.128.477-.483.86-.949 1.023l-11.11 3.902c-.284.1-.591.111-.882.033L93.127 86.388a1.495 1.495 0 0 1-1.056-1.83l17.211-64.234c.127-.474.478-.855.939-1.02Z"/><g clip-path="url(#b)"><path fill="#04a29f" d="M161.583 55.732c-7.239-1.94-12.733.467-16.483 7.222 3.685-2.893 7.216-3.401 10.593-1.527 1.926 1.07 3.001 2.964 4.19 5.06 1.938 3.415 4.181 7.367 10.909 9.17 7.239 1.94 12.733-.468 16.483-7.222-3.685 2.892-7.216 3.4-10.593 1.526-1.926-1.07-3.001-2.963-4.19-5.06-1.938-3.414-4.181-7.366-10.909-9.17Zm-17.938 12.65c-7.239-1.939-12.733.468-16.482 7.222 3.684-2.892 7.215-3.4 10.592-1.526 1.927 1.07 3.001 2.964 4.191 5.06 1.938 3.415 4.18 7.367 10.908 9.17 7.239 1.94 12.734-.468 16.483-7.222-3.684 2.892-7.215 3.4-10.592 1.526-1.927-1.07-3.002-2.963-4.191-5.06-1.938-3.414-4.18-7.366-10.909-9.17Z"/></g><path fill="#02001D" stroke="#04a29f" stroke-width="1.271" d="m324.862 76.817 10.821-3.896c.287-.103.598-.116.893-.037l84.735 22.704c.254.068.404.33.336.583l-17.502 65.32a1.497 1.497 0 0 1-.947 1.023l-11.112 3.922c-.285.1-.593.112-.885.034l-83.484-22.37a1.494 1.494 0 0 1-1.057-1.83l17.265-64.433c.127-.473.477-.854.937-1.02Z"/><path fill="#24232D" stroke="#04a29f" stroke-width="1.271" d="m347.522-7.716 10.821-3.896c.287-.103.598-.117.893-.038l84.735 22.705c.254.068.404.329.336.583l-17.502 65.32a1.497 1.497 0 0 1-.946 1.022l-11.113 3.922c-.285.1-.593.113-.884.035l-83.485-22.37a1.495 1.495 0 0 1-1.057-1.83l17.265-64.434c.127-.472.477-.853.937-1.019Z"/><path fill="#02001D" stroke="#04a29f" stroke-width="1.271" d="m194.33 132.494 10.82-3.896a1.5 1.5 0 0 1 .894-.038l84.734 22.705a.476.476 0 0 1 .337.583l-17.503 65.32a1.492 1.492 0 0 1-.946 1.022l-11.113 3.922a1.49 1.49 0 0 1-.884.035l-83.484-22.37a1.494 1.494 0 0 1-1.057-1.83l17.265-64.434c.127-.472.477-.853.937-1.019Z"/><g clip-path="url(#c)"><path fill="#02001D" d="m250.558 169.459-14.448 3.872a1.98 1.98 0 0 0-1.401 1.4l-3.872 14.448a1.983 1.983 0 0 0 .513 1.914l10.577 10.577c.5.5 1.23.696 1.914.513l14.448-3.872a1.983 1.983 0 0 0 1.401-1.401l3.871-14.448a1.98 1.98 0 0 0-.513-1.913l-10.577-10.577a1.98 1.98 0 0 0-1.913-.513Z"/><path fill="#04a29f" fill-rule="evenodd" d="m242.933 185.922-2.488 9.283-3.937-1.055 5.603-20.914 3.938 1.055-2.082 7.773 7.638 2.047 2.083-7.773 3.938 1.055-5.604 20.914-3.938-1.055 2.488-9.283-7.639-2.047Z" clip-rule="evenodd"/><path fill="#04a29f" d="m253.458 166.289 13.273 13.273c.5.501.696 1.23.512 1.914l-4.858 18.131a1.98 1.98 0 0 1-1.401 1.401l-18.131 4.858a1.98 1.98 0 0 1-1.913-.513l-13.273-13.273a1.98 1.98 0 0 1-.513-1.913l4.858-18.131a1.98 1.98 0 0 1 1.401-1.401l18.131-4.858a1.983 1.983 0 0 1 1.914.512Zm-2.901 3.171-14.448 3.871a1.983 1.983 0 0 0-1.401 1.401l-3.871 14.448a1.981 1.981 0 0 0 .513 1.914l10.576 10.576c.501.501 1.23.696 1.914.513l14.448-3.871a1.983 1.983 0 0 0 1.401-1.401l3.871-14.448a1.98 1.98 0 0 0-.512-1.914l-10.577-10.577a1.98 1.98 0 0 0-1.914-.512Z"/></g><path fill="#04a29f" stroke="#04a29f" stroke-width="1.271" d="m87.586 103.864 10.817-3.876c.286-.102.597-.115.891-.036l84.766 22.712c.254.069.405.33.337.584l-17.449 65.12a1.497 1.497 0 0 1-.949 1.023l-11.11 3.901a1.49 1.49 0 0 1-.882.034l-83.516-22.378a1.494 1.494 0 0 1-1.056-1.83l17.211-64.234c.127-.473.478-.854.94-1.02Z"/><path fill="#02001D" stroke="#02001D" stroke-width=".486" d="m117.166 141.422 12.611 3.379-.27 1.008-11.455-3.069-2.033 7.589 10.771 2.886-.27 1.008-10.772-2.886-2.232 8.331 11.586 3.105-.27 1.008-12.742-3.414 5.076-18.945Zm13.741 3.682 1.34.359 3.705 9.922 8.301-6.705 11.091-8.371-18.865 16.156 4.379 11.61-1.392-.373-3.983-10.566-8.759 7.152-1.366-.366 9.65-7.851-4.101-10.967Zm15.257 5.168.27-1.008 14.371 3.851-.27 1.008-6.621-1.774-4.806 17.937-1.156-.31 4.806-17.937-6.594-1.767ZM101.396 137.212l1.445.387 11.889 35.333-5.274-13.255-7.235-20.708-4.745 17.498-1.156-.31 5.076-18.945ZM155.997 170.713a.423.423 0 0 0 .526-.311.422.422 0 0 0-.3-.533.425.425 0 0 0-.527.311.425.425 0 0 0 .301.533Zm1.433-.806c-.188.702.192 1.296.926 1.493.782.209 1.381-.137 1.601-.959l.775-2.891-.63-.169-.774 2.889c-.122.456-.415.638-.818.531-.359-.097-.543-.389-.461-.728l-.619-.166Zm3.325.851c-.151.743.328 1.372 1.228 1.613.962.258 1.695-.071 1.904-.852.165-.615-.087-1.047-.867-1.465l-.418-.23c-.495-.266-.664-.491-.586-.782.099-.369.495-.52.993-.387.472.126.736.449.694.841l.613.165c.147-.698-.325-1.344-1.148-1.565-.886-.237-1.606.089-1.801.817-.161.6.078 1.047.765 1.416l.489.268c.503.271.689.521.606.833-.097.362-.539.526-1.045.391-.543-.146-.854-.493-.803-.895l-.624-.168Z"/><path fill="#02001D" stroke="#04a29f" stroke-width="1.271" d="m302.175 161.349 10.82-3.896c.287-.103.599-.116.893-.037l84.735 22.704a.476.476 0 0 1 .337.583l-17.503 65.32a1.493 1.493 0 0 1-.946 1.023l-11.113 3.922c-.284.1-.593.112-.884.034l-83.485-22.369a1.495 1.495 0 0 1-1.056-1.831l17.265-64.433c.126-.473.476-.854.937-1.02Z"/><path fill="#04a29f" d="M336.964 202.052c.493-.033.993-.054 1.48-.067.009-.338.024-.664.041-.999.312-5.315 2.079-9.179 4.744-9.897 2.563-.684 5.832 1.614 8.646 5.799.281.415.549.837.798 1.254.29-.159.58-.319.877-.466 4.759-2.382 8.998-2.781 10.947-.827 1.866 1.881 1.509 5.865-.701 10.383-.222.446-.445.891-.696 1.328.497.298.992.606 1.433.92 4.098 2.778 6.676 6.116 5.993 8.664-.705 2.634-4.865 4.353-9.977 4.703-.418.022-.826.047-1.251.057a30.58 30.58 0 0 1-.07 1.609c-.373 4.928-2.062 8.463-4.613 9.139-2.631.707-6.104-1.677-8.967-5.947a17.486 17.486 0 0 1-.666-1.054c-.473.265-.95.508-1.434.739-4.447 2.136-8.36 2.437-10.222.578-1.925-1.927-1.603-6.127.671-10.731.177-.354.364-.706.557-1.077-.249-.149-.485-.305-.734-.454-4.441-2.921-7.281-6.474-6.562-9.156.695-2.554 4.685-4.143 9.706-4.498Zm13.361-4.106c-2.41-3.582-5.056-5.435-6.598-5.024-1.651.433-3.088 3.603-3.349 8.19-.019.304-.036.598-.034.898 1.988.079 3.974.281 5.93.63a44.996 44.996 0 0 1 4.799-3.525c-.254-.398-.492-.781-.748-1.169Zm4.896 20.795a79.783 79.783 0 0 1-1.924 1.834c1.356.208 2.72.347 4.092.416a41.659 41.659 0 0 0-.367-4.127 51.4 51.4 0 0 1-1.801 1.877Zm5.289-9.473a45.538 45.538 0 0 0-3.677-1.697c.264.823.503 1.66.723 2.492.22.832.428 1.67.612 2.523a40.775 40.775 0 0 0 2.342-3.318Zm-3.878 5.204a55.58 55.58 0 0 0-.887-3.916 57.216 57.216 0 0 0-1.177-3.839 53.105 53.105 0 0 0-3.835-1.182 53.14 53.14 0 0 0-3.913-.894 62.616 62.616 0 0 0-2.933 2.717 60.639 60.639 0 0 0-2.75 2.921c.255 1.315.552 2.631.901 3.941a60.825 60.825 0 0 0 1.165 3.845 52.64 52.64 0 0 0 3.857 1.178c1.326.356 2.625.662 3.886.918a52.99 52.99 0 0 0 2.959-2.741 60.25 60.25 0 0 0 2.727-2.948Zm-16.415.238a53.817 53.817 0 0 1-.625-2.588 44.434 44.434 0 0 0-2.434 3.355 37.927 37.927 0 0 0 3.79 1.737c-.274-.825-.501-1.669-.731-2.504Zm.513-6.796a62.085 62.085 0 0 1 1.813-1.884c.607-.61 1.23-1.206 1.858-1.78a41.197 41.197 0 0 0-4.055-.365c.059 1.356.187 2.688.384 4.029Zm11.254-7.164a39.021 39.021 0 0 0-3.311 2.358c1.694.371 3.376.822 5.028 1.347a40.836 40.836 0 0 0-1.717-3.705Zm11.194-2.554c-1.201-1.208-4.662-.868-8.776 1.182-.26.126-.526.271-.804.424a44.333 44.333 0 0 1 2.422 5.46 46.878 46.878 0 0 1 5.446 2.397c.222-.404.437-.821.649-1.228 1.885-3.883 2.193-7.108 1.063-8.235Zm-3.901 22.827a38.15 38.15 0 0 0 1.135-.046c1.95-.086 4.237-.431 6.031-1.207a3.887 3.887 0 0 0 2.264-2.104c.415-1.547-1.727-4.244-5.224-6.613-.434-.302-.886-.577-1.337-.853a47.524 47.524 0 0 1-3.507 4.82c.348 1.969.551 3.981.638 6.003Zm-12.072 5.636a15.943 15.943 0 0 0 3.97 4.258 3.831 3.831 0 0 0 2.952.904c1.554-.418 2.91-3.248 3.227-7.47.031-.497.061-.994.062-1.498a44.416 44.416 0 0 1-5.961-.711 44.76 44.76 0 0 1-4.861 3.529c.204.354.407.676.611.988Zm-1.515-2.611c1.115-.7 2.246-1.5 3.379-2.381a54.256 54.256 0 0 1-2.503-.619 56.148 56.148 0 0 1-2.551-.746 37.781 37.781 0 0 0 1.675 3.746Zm-11.726-.421a3.918 3.918 0 0 0 .686 3.017c1.137 1.139 4.275.888 8.072-.939.438-.212.881-.444 1.336-.682a45.228 45.228 0 0 1-2.353-5.484 43.142 43.142 0 0 1-5.521-2.427c-.179.323-.349.648-.506.967a16.021 16.021 0 0 0-1.714 5.548Zm.896-9.497c.22.141.43.28.662.414a44.897 44.897 0 0 1 3.599-4.815 43.294 43.294 0 0 1-.643-5.87c-.476.006-.935.027-1.374.054-4.305.299-7.602 1.569-8.014 3.107-.446 1.663 1.933 4.588 5.77 7.11Zm12.991 2.121a4.012 4.012 0 1 1 2.079-7.75 4.012 4.012 0 0 1-2.079 7.75Z"/><defs><clipPath id="a"><path fill="#fff" d="m255.243 75.93 40.826 10.94-10.94 40.826-40.825-10.94z"/></clipPath><clipPath id="b"><path fill="#fff" d="m134.437 48.458 54.293 14.548-8.752 32.66-54.292-14.547z"/></clipPath><clipPath id="c"><path fill="#fff" d="m232.256 159.939 40.826 10.94-10.94 40.825-40.825-10.94z"/></clipPath></defs></svg>

<svg width="355" height="238" viewBox="0 0 355 238" fill="none" xmlns="http://www.w3.org/2000/svg">
<path d="M217.006 47.87L227.826 43.9738C228.113 43.8705 228.425 43.8574 228.719 43.9364L313.454 66.6408C313.708 66.7089 313.859 66.9699 313.791 67.224L296.288 132.544C296.161 133.02 295.807 133.402 295.342 133.566L284.229 137.488C283.945 137.589 283.636 137.601 283.345 137.523L199.86 115.153C199.063 114.939 198.59 114.12 198.804 113.323L216.069 48.8893C216.195 48.4165 216.545 48.0358 217.006 47.87Z" fill="#687AF0" stroke="#687AF0" stroke-width="1.27099"/>
<g clip-path="url(#clip0_915_43166)">
<path d="M285.508 105.918L275.757 103.306L275.011 106.092L281.697 107.883C279.602 111.801 275.604 114.462 271.191 114.773L259.464 94.461C262.442 90.0334 268.112 87.8199 273.544 89.2756C277.723 90.3954 280.925 93.4927 282.434 97.3311L285.009 96.0801C283.231 91.5725 279.445 87.8706 274.291 86.4896C267.047 84.5487 259.537 88.0605 256.176 94.4756L269.636 117.79C276.771 117.91 283.567 113.162 285.508 105.918ZM254.825 97.8462C253.78 101.747 254.304 105.918 256.446 109.627C258.587 113.337 262.077 115.914 265.838 116.922L254.825 97.8462Z" fill="#687AF0"/>
<path d="M275.411 82.3105C264.685 79.4365 253.558 85.8609 250.684 96.5871C247.81 107.313 254.234 118.441 264.96 121.315C275.686 124.189 286.814 117.764 289.688 107.038C292.562 96.312 286.137 85.1846 275.411 82.3105ZM256.409 109.767C254.267 106.058 253.78 101.747 254.788 97.9854L265.941 117.098C262.078 115.914 258.55 113.476 256.409 109.767ZM269.535 117.614L256.176 94.4756C259.538 88.0604 267.048 84.5486 274.292 86.4896C279.446 87.8706 283.231 91.5724 285.01 96.0801L282.435 97.3311C280.925 93.4926 277.724 90.3953 273.545 89.2756C268.112 87.8199 262.582 90.0706 259.465 94.4609L271.192 114.773C275.605 114.462 279.603 111.801 281.698 107.883L275.011 106.092L275.758 103.306L285.509 105.918C283.568 113.162 276.771 117.91 269.535 117.614Z" fill="#24232D"/>
</g>
<path d="M110.221 19.3038L121.039 15.4278C121.325 15.3252 121.636 15.3124 121.93 15.3911L206.696 38.1039C206.95 38.172 207.101 38.4332 207.033 38.6873L189.584 103.807C189.456 104.284 189.101 104.667 188.635 104.83L177.525 108.732C177.241 108.832 176.934 108.843 176.643 108.765L93.1273 86.3876C92.33 86.174 91.8569 85.3545 92.0705 84.5572L109.282 20.3239C109.409 19.8503 109.76 19.4691 110.221 19.3038Z" fill="#24232D" stroke="#687AF0" stroke-width="1.27099"/>
<g clip-path="url(#clip1_915_43166)">
<path d="M161.583 55.7319C154.344 53.7922 148.85 56.1994 145.1 62.9536C148.785 60.0614 152.316 59.5527 155.693 61.4274C157.619 62.4971 158.694 64.3908 159.883 66.487C161.821 69.9018 164.064 73.8539 170.792 75.6568C178.031 77.5965 183.525 75.1892 187.275 68.4351C183.59 71.3272 180.059 71.8359 176.682 69.9612C174.756 68.8916 173.681 66.9979 172.492 64.9016C170.554 61.4869 168.311 57.5347 161.583 55.7319ZM143.645 68.3829C136.406 66.4432 130.912 68.8504 127.163 75.6045C130.847 72.7124 134.378 72.2037 137.755 74.0784C139.682 75.1481 140.756 77.0417 141.946 79.138C143.884 82.5527 146.126 86.5049 152.854 88.3077C160.093 90.2474 165.588 87.8402 169.337 81.0861C165.653 83.9782 162.122 84.4869 158.745 82.6122C156.818 81.5425 155.743 79.6488 154.554 77.5526C152.616 74.1379 150.374 70.1857 143.645 68.3829Z" fill="#687AF0"/>
</g>
<path d="M324.862 76.8172L335.683 72.9211C335.97 72.8178 336.281 72.8047 336.576 72.8836L421.311 95.5881C421.565 95.6561 421.715 95.9172 421.647 96.1712L404.145 161.491C404.017 161.967 403.663 162.35 403.198 162.514L392.086 166.436C391.801 166.536 391.493 166.548 391.201 166.47L307.717 144.1C306.92 143.887 306.446 143.067 306.66 142.27L323.925 77.8366C324.052 77.3638 324.402 76.983 324.862 76.8172Z" fill="#24232D" stroke="#687AF0" stroke-width="1.27099"/>
<path d="M347.522 -7.71597L358.343 -11.6121C358.63 -11.7154 358.941 -11.7285 359.236 -11.6496L443.971 11.0549C444.225 11.1229 444.375 11.384 444.307 11.638L426.805 76.9579C426.677 77.4339 426.323 77.8164 425.859 77.9804L414.746 81.9023C414.461 82.0028 414.153 82.0147 413.862 81.9366L330.377 59.5672C329.58 59.3535 329.107 58.534 329.32 57.7368L346.585 -6.69664C346.712 -7.16939 347.062 -7.55017 347.522 -7.71597Z" fill="#24232D" stroke="#687AF0" stroke-width="1.27099"/>
<path d="M194.33 132.494L205.15 128.598C205.437 128.495 205.749 128.481 206.044 128.56L290.778 151.265C291.032 151.333 291.183 151.594 291.115 151.848L273.612 217.168C273.485 217.644 273.131 218.026 272.666 218.19L261.553 222.112C261.269 222.213 260.961 222.225 260.669 222.147L177.185 199.777C176.387 199.563 175.914 198.744 176.128 197.947L193.393 133.513C193.52 133.041 193.87 132.66 194.33 132.494Z" fill="#24232D" stroke="#687AF0" stroke-width="1.27099"/>
<g clip-path="url(#clip2_915_43166)">
<path d="M250.558 169.459L236.11 173.331C235.426 173.514 234.892 174.048 234.709 174.731L230.837 189.179C230.654 189.863 230.85 190.593 231.35 191.093L241.927 201.67C242.427 202.17 243.157 202.366 243.841 202.183L258.289 198.311C258.972 198.128 259.506 197.594 259.69 196.91L263.561 182.462C263.744 181.779 263.549 181.049 263.048 180.549L252.471 169.972C251.971 169.471 251.241 169.276 250.558 169.459Z" fill="#24232D"/>
<path fill-rule="evenodd" clip-rule="evenodd" d="M242.933 185.922L240.445 195.205L236.508 194.15L242.111 173.236L246.049 174.291L243.967 182.064L251.605 184.111L253.688 176.338L257.626 177.393L252.022 198.307L248.084 197.252L250.572 187.969L242.933 185.922Z" fill="#687AF0"/>
<path d="M253.458 166.289L266.731 179.562C267.231 180.063 267.427 180.792 267.243 181.476L262.385 199.607C262.202 200.291 261.668 200.825 260.984 201.008L242.853 205.866C242.17 206.049 241.44 205.854 240.94 205.353L227.667 192.08C227.166 191.58 226.971 190.85 227.154 190.167L232.012 172.036C232.195 171.352 232.729 170.818 233.413 170.635L251.544 165.777C252.228 165.594 252.957 165.789 253.458 166.289ZM250.557 169.46L236.109 173.331C235.426 173.514 234.892 174.048 234.708 174.732L230.837 189.18C230.654 189.864 230.849 190.593 231.35 191.094L241.926 201.67C242.427 202.171 243.156 202.366 243.84 202.183L258.288 198.312C258.972 198.128 259.506 197.594 259.689 196.911L263.56 182.463C263.744 181.779 263.548 181.05 263.048 180.549L252.471 169.972C251.97 169.472 251.241 169.276 250.557 169.46Z" fill="#687AF0"/>
</g>
<path d="M87.5856 103.864L98.4031 99.9883C98.6894 99.8857 99.0002 99.8729 99.294 99.9516L184.06 122.664C184.314 122.733 184.465 122.994 184.397 123.248L166.948 188.368C166.82 188.844 166.465 189.227 165.999 189.391L154.889 193.292C154.606 193.392 154.298 193.404 154.007 193.326L70.4915 170.948C69.6942 170.734 69.2211 169.915 69.4347 169.118L86.6461 104.884C86.773 104.411 87.1241 104.03 87.5856 103.864Z" fill="#687AF0" stroke="#687AF0" stroke-width="1.27099"/>
<path d="M117.166 141.422L129.777 144.801L129.507 145.809L118.052 142.74L116.019 150.329L126.79 153.215L126.52 154.223L115.748 151.337L113.516 159.668L125.102 162.773L124.832 163.781L112.09 160.367L117.166 141.422ZM130.907 145.104L132.247 145.463L135.952 155.385L144.253 148.68L155.344 140.309L136.479 156.465L140.858 168.075L139.466 167.702L135.483 157.136L126.724 164.288L125.358 163.922L135.008 156.071L130.907 145.104ZM146.164 150.272L146.434 149.264L160.805 153.115L160.535 154.123L153.914 152.349L149.108 170.286L147.952 169.976L152.758 152.039L146.164 150.272Z" fill="#24232D" stroke="#24232D" stroke-width="0.485916"/>
<path d="M101.396 137.212L102.841 137.599L114.73 172.932L109.456 159.677L102.221 138.969L97.4761 156.467L96.3201 156.157L101.396 137.212Z" fill="#24232D" stroke="#24232D" stroke-width="0.485916"/>
<path d="M155.997 170.713C156.236 170.777 156.459 170.639 156.523 170.402C156.587 170.164 156.462 169.933 156.223 169.869C155.987 169.806 155.76 169.942 155.696 170.18C155.633 170.418 155.76 170.65 155.997 170.713ZM157.43 169.907C157.242 170.609 157.622 171.203 158.356 171.4C159.138 171.609 159.737 171.263 159.957 170.441L160.732 167.55L160.102 167.381L159.328 170.27C159.206 170.726 158.913 170.908 158.51 170.801C158.151 170.704 157.967 170.412 158.049 170.073L157.43 169.907ZM160.755 170.758C160.604 171.501 161.083 172.13 161.983 172.371C162.945 172.629 163.678 172.3 163.887 171.519C164.052 170.904 163.8 170.472 163.02 170.054L162.602 169.824C162.107 169.558 161.938 169.333 162.016 169.042C162.115 168.673 162.511 168.522 163.009 168.655C163.481 168.781 163.745 169.104 163.703 169.496L164.316 169.661C164.463 168.963 163.991 168.317 163.168 168.096C162.282 167.859 161.562 168.185 161.367 168.913C161.206 169.513 161.445 169.96 162.132 170.329L162.621 170.597C163.124 170.868 163.31 171.118 163.227 171.43C163.13 171.792 162.688 171.956 162.182 171.821C161.639 171.675 161.328 171.328 161.379 170.926L160.755 170.758Z" fill="#24232D" stroke="#24232D" stroke-width="0.485916"/>
<path d="M302.175 161.349L312.995 157.453C313.282 157.35 313.594 157.337 313.888 157.416L398.623 180.12C398.877 180.188 399.028 180.449 398.96 180.703L381.457 246.023C381.33 246.499 380.976 246.882 380.511 247.046L369.398 250.968C369.114 251.068 368.805 251.08 368.514 251.002L285.029 228.633C284.232 228.419 283.759 227.599 283.973 226.802L301.238 162.369C301.364 161.896 301.714 161.515 302.175 161.349Z" fill="#24232D" stroke="#687AF0" stroke-width="1.27099"/>
<path d="M336.964 202.052C337.457 202.019 337.957 201.998 338.444 201.985C338.453 201.647 338.468 201.321 338.485 200.986C338.797 195.671 340.564 191.807 343.229 191.089C345.792 190.405 349.061 192.703 351.875 196.888C352.156 197.303 352.424 197.725 352.673 198.142C352.963 197.983 353.253 197.823 353.55 197.676C358.309 195.294 362.548 194.895 364.497 196.849C366.363 198.73 366.006 202.714 363.796 207.232C363.574 207.678 363.351 208.123 363.1 208.56C363.597 208.858 364.092 209.166 364.533 209.48C368.631 212.258 371.209 215.596 370.526 218.144C369.821 220.778 365.661 222.497 360.549 222.847C360.131 222.869 359.723 222.894 359.298 222.904C359.286 223.447 359.268 223.977 359.228 224.513C358.855 229.441 357.166 232.976 354.615 233.652C351.984 234.359 348.511 231.975 345.648 227.705C345.419 227.366 345.193 227.017 344.982 226.651C344.509 226.916 344.032 227.159 343.548 227.39C339.101 229.526 335.188 229.827 333.326 227.968C331.401 226.041 331.723 221.841 333.997 217.237C334.174 216.883 334.361 216.531 334.554 216.16C334.305 216.011 334.069 215.855 333.82 215.706C329.379 212.785 326.539 209.232 327.258 206.55C327.953 203.996 331.943 202.407 336.964 202.052ZM350.325 197.946C347.915 194.364 345.269 192.511 343.727 192.922C342.076 193.355 340.639 196.525 340.378 201.112C340.359 201.416 340.342 201.71 340.344 202.01C342.332 202.089 344.318 202.291 346.274 202.64C347.79 201.367 349.396 200.18 351.073 199.115C350.819 198.717 350.581 198.334 350.325 197.946ZM355.221 218.741C354.592 219.355 353.952 219.977 353.297 220.575C354.653 220.783 356.017 220.922 357.389 220.991C357.341 219.67 357.217 218.287 357.022 216.864C356.439 217.501 355.837 218.133 355.221 218.741ZM360.51 209.268C359.361 208.671 358.132 208.105 356.833 207.571C357.097 208.394 357.336 209.231 357.556 210.063C357.776 210.895 357.984 211.733 358.168 212.586C359.044 211.471 359.816 210.359 360.51 209.268ZM356.632 214.472C356.386 213.16 356.087 211.854 355.745 210.556C355.402 209.259 355.001 207.987 354.568 206.717C353.325 206.281 352.05 205.888 350.733 205.535C349.416 205.182 348.105 204.883 346.82 204.641C345.813 205.515 344.84 206.418 343.887 207.358C342.935 208.298 342.023 209.28 341.137 210.279C341.392 211.594 341.689 212.91 342.038 214.22C342.381 215.517 342.773 216.786 343.203 218.065C344.436 218.499 345.733 218.888 347.06 219.243C348.386 219.599 349.685 219.905 350.946 220.161C351.965 219.28 352.96 218.372 353.905 217.42C354.851 216.468 355.753 215.483 356.632 214.472ZM340.217 214.71C339.983 213.854 339.783 212.987 339.592 212.122C338.727 213.198 337.921 214.322 337.158 215.477C338.385 216.126 339.653 216.702 340.948 217.214C340.674 216.389 340.447 215.545 340.217 214.71ZM340.73 207.914C341.322 207.279 341.927 206.637 342.543 206.03C343.15 205.42 343.773 204.824 344.401 204.25C342.989 204.058 341.632 203.931 340.346 203.885C340.405 205.241 340.533 206.573 340.73 207.914ZM351.984 200.75C350.842 201.474 349.733 202.269 348.673 203.108C350.367 203.479 352.049 203.93 353.701 204.455C353.168 203.138 352.585 201.89 351.984 200.75ZM363.178 198.196C361.977 196.988 358.516 197.328 354.402 199.378C354.142 199.504 353.876 199.649 353.598 199.802C354.527 201.565 355.336 203.389 356.02 205.262C357.886 205.948 359.703 206.743 361.466 207.659C361.688 207.255 361.903 206.838 362.115 206.431C364 202.548 364.308 199.323 363.178 198.196ZM359.277 221.023C359.661 221.012 360.035 220.999 360.412 220.977C362.362 220.891 364.649 220.546 366.443 219.77C367.459 219.403 368.278 218.654 368.707 217.666C369.122 216.119 366.98 213.422 363.483 211.053C363.049 210.751 362.597 210.476 362.146 210.2C361.077 211.882 359.903 213.494 358.639 215.02C358.987 216.989 359.19 219.001 359.277 221.023ZM347.205 226.659C348.257 228.311 349.601 229.753 351.175 230.917C351.996 231.621 353.062 231.948 354.127 231.821C355.681 231.403 357.037 228.573 357.354 224.351C357.385 223.854 357.415 223.357 357.416 222.853C355.414 222.749 353.426 222.515 351.455 222.142C349.918 223.419 348.29 224.611 346.594 225.671C346.798 226.025 347.001 226.347 347.205 226.659ZM345.69 224.048C346.805 223.348 347.936 222.548 349.069 221.667C348.251 221.489 347.412 221.275 346.566 221.048C345.691 220.814 344.85 220.568 344.015 220.302C344.505 221.588 345.068 222.831 345.69 224.048ZM333.964 223.627C333.766 224.676 334.018 225.774 334.65 226.644C335.787 227.783 338.925 227.532 342.722 225.705C343.16 225.493 343.603 225.261 344.058 225.023C343.154 223.245 342.366 221.417 341.705 219.539C339.817 218.858 337.962 218.052 336.184 217.112C336.005 217.435 335.835 217.76 335.678 218.079C334.775 219.795 334.198 221.68 333.964 223.627ZM334.86 214.13C335.08 214.271 335.29 214.41 335.522 214.544C336.613 212.858 337.815 211.254 339.121 209.729C338.774 207.791 338.558 205.828 338.478 203.859C338.002 203.865 337.543 203.886 337.104 203.913C332.799 204.212 329.502 205.482 329.09 207.02C328.644 208.683 331.023 211.608 334.86 214.13ZM347.851 216.251C345.717 215.679 344.441 213.483 345.015 211.339C345.587 209.205 347.784 207.929 349.927 208.503C352.071 209.077 353.338 211.271 352.763 213.415C352.189 215.559 349.985 216.823 347.851 216.251Z" fill="#687AF0"/>
<defs>
<clipPath id="clip0_915_43166">
<rect width="42.266" height="42.266" fill="white" transform="translate(255.243 75.9307) rotate(15)"/>
</clipPath>
<clipPath id="clip1_915_43166">
<rect width="56.2083" height="33.8128" fill="white" transform="translate(134.437 48.458) rotate(15)"/>
</clipPath>
<clipPath id="clip2_915_43166">
<rect width="42.266" height="42.266" fill="white" transform="translate(232.256 159.939) rotate(15)"/>
</clipPath>
</defs>
</svg>
